svgs/sharp-regular/pipe-valve.svg

<svg xmlns="http://www.w3.org/2000/svg" viewBox="0 0 512 512"><!--! Font Awesome Pro 6.6.0 by @fontawesome - https://fontawesome.com License - https://fontawesome.com/license (Commercial License) Copyright 2024 Fonticons, Inc. --><path d="M280 56l0-24-48 0 0 24 0 21.6L96 64l0 64 136-13.6 0 77.6L48 192l0-8 0-24L0 160l0 24 0 32L0 424l0 32 0 24 48 0 0-24 0-8 416 0 0 8 0 24 48 0 0-24 0-32 0-208 0-32 0-24-48 0 0 24 0 8-184 0 0-77.6L416 128l0-64L280 77.6 280 56zM48 400l0-160 208 0 208 0 0 160L48 400z"/></svg>

<svg xmlns="http://www.w3.org/2000/svg" viewBox="0 0 512 512"><!--! Font Awesome Pro 6.4.2 by @fontawesome - https://fontawesome.com License - https://fontawesome.com/license (Commercial License) Copyright 2023 Fonticons, Inc. --><path d="M280 56V32H232V56 77.6L96 64v64l136-13.6V192H48v-8V160H0v24 32V424v32 24H48V456v-8H464v8 24h48V456 424 216 184 160H464v24 8H280V114.4L416 128V64L280 77.6V56zM48 400V240H256 464V400H48z"/></svg>
